X:1
T:Title
%%score { ( 1 3 ) | ( 2 4 ) }
L:1/8
M:6/8
K:Db
V:1 treble nm="Grand Piano"
V:3 treble 
V:2 bass 
V:4 bass 
V:1
 z3 z2[Q:1/4=93] [FA] | [FA][GB][FA] [DF]2 [EG] | [FA]2 [GB] [FA]3 | c2 c c<Bc | %4
[M:5/8] [Fd]-[Fd]- [Fd]3 |[M:1/8] [FA] |[M:3/4] [FA][GB] [FA] [DF]2 [EG] | [FA]2 [GB] [FA]3 | %8
 c2 cd/c/- cB | A6 | [FA]2 [FA][GB] [FA][DF] | d6 | [DBd][DBd] [DBd] [DAc]2 [DGB] | %13
 [FA]4- [FA][FA] | [FA][GB] [FA] [DF]2 [EG] | [FA][GB] [FA] [DF]2 [Ad] |[M:7/8] e3 dc<Bc | %17
[M:5/8] d-d- d3 |] %18
V:2
 z3 z2 [D,D] | [D,D][D,D][D,D] [D,A,]2 [D,A,] | [D,D]2 [D,D] [D,D]3 | %3
 [A,EG]2 [A,EG] [A,EG]<[A,DG][A,G] |[M:5/8][K:bass] [D,A,]-[D,A,]- [D,A,]3 |[M:1/8] [D,D] | %6
[M:3/4] [D,D][D,D] [D,D] [D,A,]2 [D,A,] | [D,D]2 [D,D] [D,D]3 | %8
 [E,A,E]2 [E,A,E][E,=G,E]/[E,A,E]/- [E,A,E][E,DE] | [CE]2 D C3 | [D,D]2 [D,D][D,D] [D,D][D,A,] | %11
 .A,2 z2 z2 | G,G, G, G,2 G, | [D,D]4- [D,D][D,D] | [D,D][D,D] [D,D] [D,A,]2 [D,A,] | %15
 [D,D][D,D] [D,D] [D,A,]2 [F,D] |[M:7/8][K:treble] [A,CG]3 [A,DF][A,EG]<[A,DG][A,G] | %17
[M:5/8][K:bass] .A, z z z2 |] %18
V:3
 x6 | x6 | x6 | x6 |[M:5/8] x5 |[M:1/8] x |[M:3/4] x6 | x6 | x6 | z2 F G3 | x6 | F<F G F2 [DAd] | %12
 x6 | x6 | x6 | x6 |[M:7/8] x7 |[M:5/8] F<FG F2 |] %18
V:4
 x6 | x6 | x6 | x6 |[M:5/8][K:bass] x5 |[M:1/8] x |[M:3/4] x6 | x6 | x6 | A,6 | x6 | %11
 D,-<[D,-A,] [D,-B,] [D,A,]2 F, | x6 | x6 | x6 | x6 |[M:7/8][K:treble] x7 | %17
[M:5/8][K:bass] D,-<[D,-A,][D,-B,] [D,A,]2 |] %18

